hero/solid/bars-2.svg

<svg width="24" height="24" viewBox="0 0 24 24" fill="none" xmlns="http://www.w3.org/2000/svg">
<path fill-rule="evenodd" clip-rule="evenodd" d="M3 9C3 8.58579 3.33579 8.25 3.75 8.25H20.25C20.6642 8.25 21 8.58579 21 9C21 9.41421 20.6642 9.75 20.25 9.75H3.75C3.33579 9.75 3 9.41421 3 9ZM3 15.75C3 15.3358 3.33579 15 3.75 15H20.25C20.6642 15 21 15.3358 21 15.75C21 16.1642 20.6642 16.5 20.25 16.5H3.75C3.33579 16.5 3 16.1642 3 15.75Z" fill="#0F172A"/>
</svg>

<svg viewBox="0 0 24 24" xmlns="http://www.w3.org/2000/svg"><path fill-rule="evenodd" d="M3 9v0c0-.42.33-.75.75-.75h16.5v0c.41 0 .75.33.75.75 0 .41-.34.75-.75.75H3.75v0C3.33 9.75 3 9.41 3 9Zm0 6.75v0c0-.42.33-.75.75-.75h16.5v0c.41 0 .75.33.75.75 0 .41-.34.75-.75.75H3.75v0c-.42 0-.75-.34-.75-.75Z"/></svg>
